X: 1
T: Gallant Tipperary Boys, The
M: 12/8
L: 1/8
R: slide
K: Dmaj
d3 DFA B2 A ABc |  dcd ede f2 d def |
gag fgf (3 efg e d2 A |1 BAG FGA B2 A ABc :|2 BAG FGA B2 A A3 ||
a2 f fef g2 e e2 a | aba fed e2 A A2 a |
agf g2 d (3 efg e d2 A | BAG FGA B2 A A3 :|
